symbolic/24x24/apps/fontforge.svg

<svg xmlns="http://www.w3.org/2000/svg" width="24" height="24" version="1">
 <path style="fill:#e4e4e4" d="M 11.999975,2.0000512 C 6.4599889,2.0000512 2,6.4600401 2,12.000026 c 0,5.539986 4.4599889,9.999975 9.999975,9.999975 5.539986,0 9.999975,-4.459989 9.999975,-9.999975 0,-5.5399859 -4.459989,-9.9999748 -9.999975,-9.9999748 z"/>
 <path style="opacity:0.2;fill:#ffffff" d="m 11.999975,2.0000512 c 5.534986,0 9.990975,4.4599889 9.990975,9.9999748 0,0.08394 -0.004,0.16657 -0.0058,0.25 -0.132,-5.4229868 -4.533989,-9.749976 -9.984975,-9.749976 -5.4509864,0 -9.8529754,4.3269892 -9.984975,9.749976 -0.002,-0.08343 -0.00584,-0.166065 -0.00584,-0.25 0,-5.5399859 4.4559388,-9.9999748 9.9909745,-9.9999748 z"/>
 <path style="opacity:0.2" d="M 2.0059,12.250026 C 2.00385,12.333525 2.00005,12.416025 2.00005,12.500025 2.00005,18.040011 6.4600388,22.5 12.000025,22.5 17.540011,22.5 22,18.040011 22,12.500025 c 0,-0.084 -0.004,-0.1665 -0.006,-0.249999 -0.132,5.422986 -4.537989,9.749975 -9.993975,9.749975 -5.4559864,0 -9.8619753,-4.326989 -9.993975,-9.749975 z"/>
 <g transform="matrix(0.49999875,0,0,0.49999875,2,5.625e-5)">
  <path style="fill:#404040" d="m 21.628906,14 c -2.818495,0 -4.478806,3.243086 -5.498047,5.955078 -0.0093,0.02554 -0.0065,0.01975 -0.01563,0.04492 L 13,20 l 0,1 2.771484,0 c -0.685655,1.96669 -0.791015,2.443359 -0.791015,2.443359 l -1.646485,5.171875 c -0.862127,2.706924 -1.482198,4.615235 -2.371093,4.615235 -1.4814793,0 -0.889034,-1.238281 -2.0742191,-1.238281 C 8.2960796,31.992187 8,32.377104 8,32.761719 8,33.53095 8.5933235,34 10.371094,34 c 3.111127,0 4.887382,-3.845405 6.220703,-8.076172 l 0.746094,-2.386719 C 18.186752,20.822285 18.070335,21.212272 18.140625,21 L 21,21 l 0,-1 -2.542969,0 c -1.97e-4,9.33e-4 0.07422,-0.232422 0.07422,-0.232422 1.127118,-3.547076 1.692051,-4.998047 2.505859,-4.998047 C 22.518589,14.769531 21.926135,16 23.111328,16 23.703927,16 24,15.722516 24,15.337891 24,14.56866 23.406686,14 21.628906,14 Z"/>
  <path style="fill:#404040" d="m 29.628906,14 c -2.818495,0 -4.478806,3.243086 -5.498047,5.955078 -0.0093,0.02554 -0.0065,0.01975 -0.01563,0.04492 L 21,20 l 0,1 2.771484,0 c -0.685655,1.96669 -0.791015,2.443359 -0.791015,2.443359 l -1.646485,5.171875 c -0.862127,2.706924 -1.482198,4.615235 -2.371093,4.615235 -1.481479,0 -0.889034,-1.238281 -2.074219,-1.238281 C 16.29608,31.992187 16,32.377104 16,32.761719 16,33.53095 16.593324,34 18.371094,34 c 3.111127,0 4.887382,-3.845405 6.220703,-8.076172 l 0.746094,-2.386719 C 26.186752,20.822285 26.070335,21.212272 26.140625,21 L 29,21 l 0,-1 -2.542969,0 c -1.97e-4,9.33e-4 0.07422,-0.232422 0.07422,-0.232422 1.127118,-3.547076 1.692051,-4.998047 2.505859,-4.998047 C 30.518589,14.769531 29.926135,16 31.111328,16 31.703927,16 32,15.722516 32,15.337891 32,14.56866 31.406686,14 29.628906,14 Z"/>
 </g>
</svg>

<svg xmlns="http://www.w3.org/2000/svg" width="24" height="24" version="1"><path style="fill:#e4e4e4" d="M12 2C6.46 2 2 6.46 2 12s4.46 10 10 10 10-4.46 10-10S17.54 2 12 2z"/><path style="opacity:.2;fill:#fff" d="M12 2a9.974 9.974 0 0 1 9.99 10c0 .084-.003.167-.005.25A9.97 9.97 0 0 0 12 2.5a9.97 9.97 0 0 0-9.985 9.75c-.002-.083-.006-.166-.006-.25C2.01 6.46 6.465 2 12 2z"/><path style="opacity:.2" d="M2.006 12.25c-.002.084-.006.166-.006.25 0 5.54 4.46 10 10 10s10-4.46 10-10c0-.084-.004-.166-.006-.25A9.975 9.975 0 0 1 12 22a9.975 9.975 0 0 1-9.994-9.75z"/><path style="fill:#404040" d="M21.629 14c-2.819 0-4.479 3.243-5.498 5.955l-.016.045H13v1h2.771c-.685 1.967-.79 2.443-.79 2.443l-1.647 5.172c-.862 2.707-1.482 4.615-2.371 4.615-1.482 0-.89-1.238-2.074-1.238-.593 0-.889.385-.889.77C8 33.53 8.593 34 10.371 34c3.111 0 4.887-3.845 6.22-8.076l.747-2.387c.849-2.715.732-2.325.803-2.537H21v-1h-2.543l.074-.232c1.127-3.547 1.692-4.998 2.506-4.998 1.482 0 .89 1.23 2.074 1.23.593 0 .889-.277.889-.662 0-.77-.593-1.338-2.371-1.338z" transform="matrix(.5 0 0 .5 2 0)"/><path style="fill:#404040" d="M29.629 14c-2.819 0-4.479 3.243-5.498 5.955l-.016.045H21v1h2.771c-.685 1.967-.79 2.443-.79 2.443l-1.647 5.172c-.862 2.707-1.482 4.615-2.371 4.615-1.482 0-.89-1.238-2.074-1.238-.593 0-.889.385-.889.77 0 .769.593 1.238 2.371 1.238 3.111 0 4.887-3.845 6.22-8.076l.747-2.387c.849-2.715.732-2.325.803-2.537H29v-1h-2.543l.074-.232c1.127-3.547 1.692-4.998 2.506-4.998 1.482 0 .89 1.23 2.074 1.23.593 0 .889-.277.889-.662 0-.77-.593-1.338-2.371-1.338z" transform="matrix(.5 0 0 .5 2 0)"/></svg>
